images/wheel-small.svg

<svg width="84" height="84" viewBox="0 0 84 84" fill="none" xmlns="http://www.w3.org/2000/svg">
<path d="M17.161 62.3783C14.1666 63.8949 10.3945 62.4949 8.76125 59.2673C7.10853 56.0201 8.21682 52.1508 11.2112 50.6342C11.3667 50.5564 11.5223 50.4981 11.6778 50.4203C11.1139 48.6315 10.7056 46.8232 10.414 45.015C10.239 45.015 10.064 45.015 9.88898 44.9955C6.46687 44.6844 3.76419 41.554 3.82252 37.9763C3.90029 34.3987 6.71964 31.7543 10.1418 32.0654C10.3167 32.0848 10.4917 32.1043 10.6667 32.1432C11.0167 30.3738 11.5223 28.6433 12.125 26.9711C11.9695 26.8739 11.8139 26.7767 11.6584 26.6795C8.74178 24.6379 7.78905 20.5936 9.57788 17.6381C11.3473 14.7021 15.1582 13.9827 18.0748 16.0243C18.2304 16.1215 18.3665 16.2382 18.5026 16.3548C19.6498 15.0715 20.9331 13.8854 22.2941 12.816C22.1969 12.6605 22.0997 12.5049 22.0219 12.3299C20.3692 9.08283 18.2304 5.54406 21.2442 4.06633C28.2245 0.663668 31.2188 3.58025 32.8716 6.82736C32.9493 7.00236 33.0271 7.1579 33.1049 7.3329C34.777 6.86625 36.4881 6.5357 38.1991 6.36071C38.1797 6.18571 38.1797 5.99127 38.1797 5.81627C38.2575 2.23862 37.1881 0.313684 40.6296 0.255353C48.1155 0.119246 50.6432 3.36637 50.5654 6.92458C50.5654 7.11902 50.5459 7.294 50.5265 7.469C52.2376 7.95509 53.9292 8.57729 55.5624 9.3356C55.6402 9.18004 55.718 9.02451 55.8152 8.86896C57.5846 5.93295 61.3956 5.21352 64.3122 7.25512C67.2287 9.29672 68.1815 13.341 66.3926 16.2965C66.2954 16.452 66.1982 16.5881 66.101 16.7242C67.4037 18.027 68.6092 19.4269 69.737 20.9436C69.8731 20.8463 70.0286 20.7685 70.1842 20.6908C73.1785 19.1742 76.9506 20.5741 78.5839 23.8018C80.2366 27.0489 79.1283 30.9182 76.134 32.4348C75.9784 32.5126 75.8229 32.5709 75.6673 32.6487C76.2312 34.4375 76.6395 36.2458 76.9312 38.0541C77.1062 38.0541 77.2812 38.0541 77.4562 38.0735C80.8783 38.3846 83.581 41.5151 83.5226 45.0927C83.4449 48.6704 80.6255 51.3148 77.2034 51.0037C77.0284 50.9842 76.8534 50.9648 76.6784 50.9259C76.3284 52.6953 75.8229 54.4258 75.2201 56.0979C75.3757 56.1951 75.5312 56.2924 75.6868 56.3896C78.6033 58.4312 79.5561 62.4755 77.7673 65.4309C75.9979 68.367 70.1259 69.728 67.2093 67.6864C67.0537 67.5892 68.9787 66.8309 68.8426 66.7142C67.6954 67.9975 66.4121 69.1836 65.051 70.253C65.1482 70.4086 65.2454 70.5641 65.3232 70.7391C66.9759 73.9862 65.8677 77.8555 62.8733 79.3722C59.879 80.8888 56.1069 79.4888 54.4736 76.2611C54.3958 76.0862 54.318 75.9306 54.2403 75.7556C52.5681 76.2223 50.8571 76.5528 49.146 76.7278C49.1654 76.9028 49.1654 77.0972 49.1654 77.2722C49.0877 80.8499 46.2683 83.4942 42.8462 83.1831C39.4241 82.872 36.7214 79.7416 36.7798 76.1639C36.7798 75.9695 36.7992 75.7945 36.8186 75.6195C35.1076 75.1334 33.416 74.5112 31.7827 73.7529C31.7049 73.9084 31.6271 74.064 31.5299 74.2195C29.7605 77.1556 25.9495 77.875 23.033 75.8334C20.1164 73.7918 19.1637 69.7475 20.9525 66.792C21.0497 66.6365 21.1469 66.5004 21.2442 66.3643C19.9414 65.0615 18.7359 63.6616 17.6082 62.145C17.4526 62.2227 17.3165 62.3005 17.161 62.3783ZM54.5125 62.8644C65.401 57.3423 69.3675 43.3039 63.3788 31.5404C57.3902 19.7575 43.7212 14.6826 32.8521 20.2047C21.9636 25.7267 17.997 39.7651 23.9857 51.5286C29.955 63.3116 43.624 68.3864 54.5125 62.8644Z" fill="url(#paint0_linear_39_3402)"/>
<path d="M9.8891 44.9953C6.46699 44.6842 3.76431 41.5538 3.82264 37.9761C3.90042 34.3985 6.71977 31.7541 10.1419 32.0652C10.3169 32.0847 10.4919 32.1041 10.6669 32.143C11.0168 30.3736 11.5224 28.6431 12.1251 26.971C11.9696 26.8737 11.814 26.7765 11.6585 26.6793C8.74191 24.6377 5.10592 19.6795 7.18641 16.938C11.0946 11.727 15.1584 13.9825 18.0749 16.0435C18.2305 16.1407 18.3666 16.2574 18.5027 16.3741C19.6499 15.0908 20.9332 13.9047 22.2943 12.8353C22.197 12.6798 22.0998 12.5242 22.022 12.3492C21.1276 10.5798 21.0498 8.63545 21.6332 6.98273C24.4525 11.9603 27.2524 16.9574 29.9745 21.9739C21.3026 28.332 18.5221 40.8733 23.9664 51.5479C28.5551 60.6087 37.6937 65.6835 46.6184 65.0419C47.0073 66.0724 47.4156 67.1029 47.8239 68.1335C48.9711 70.9139 50.2933 73.6166 51.6155 76.3388C50.7794 76.4943 49.9628 76.6109 49.1267 76.7082C49.1461 76.8832 49.1461 77.0776 49.1461 77.2526C49.0684 80.8303 46.9101 83.8635 40.7075 83.533C37.2854 83.358 36.6827 79.722 36.7604 76.1443C36.7604 75.9499 36.7799 75.7749 36.7993 75.5999C35.0883 75.1138 33.3966 74.4916 31.7634 73.7333C31.6856 73.8888 31.6078 74.0444 31.5106 74.1999C29.7412 77.1359 23.597 78.3803 20.661 76.3388C17.7444 74.2972 19.1444 69.7084 20.9137 66.7724C21.011 66.6168 21.1082 66.4807 21.2054 66.3446C19.9027 65.0419 18.6971 63.6419 17.5694 62.1253C17.4333 62.2225 17.2778 62.3003 17.1222 62.3781C14.1279 63.8947 10.3558 62.4948 8.72247 59.2671C7.06975 56.02 8.17804 52.1507 11.1724 50.634C11.3279 50.5563 11.4835 50.4979 11.639 50.4202C11.0752 48.6313 10.6669 46.8231 10.3752 45.0148C10.2391 45.0148 10.0641 45.0148 9.8891 44.9953Z" fill="url(#paint1_linear_39_3402)"/>
<path d="M13.9334 62.7474C10.9391 64.2641 7.16698 62.8641 5.53371 59.6364C3.88099 56.3893 4.9893 52.52 7.98364 51.0034C8.1392 50.9256 8.29472 50.8673 8.45028 50.7895C7.88641 49.0007 7.47809 47.1924 7.18643 45.3841C7.01144 45.3841 6.83645 45.3841 6.66146 45.3647C3.23935 45.0536 0.536674 41.9231 0.595001 38.3455C0.672775 34.7678 3.49213 32.1235 6.91424 32.4346C7.08923 32.454 7.26421 32.4735 7.43921 32.5123C7.7892 30.743 8.29474 29.0125 8.89749 27.3403C8.74194 27.2431 8.58639 27.1459 8.43084 27.0486C5.51427 25.007 4.56153 20.9627 6.35036 18.0073C8.11975 15.0713 11.9307 14.3518 14.8473 16.3934C15.0028 16.4907 15.139 16.6073 15.2751 16.724C16.4223 15.4407 17.7055 14.2546 19.0666 13.1852C18.9694 13.0297 18.8722 12.8741 18.7944 12.6991C17.1417 9.452 18.25 5.58268 21.2443 4.06607C24.2386 2.54945 28.0107 3.9494 29.644 7.17707C29.7218 7.35207 29.7996 7.50761 29.8774 7.68261C31.5495 7.21596 33.2606 6.88541 34.9716 6.71042C34.9522 6.53542 34.9522 6.341 34.9522 6.16601C35.03 2.58835 37.8493 -0.0560125 41.2714 0.255088C44.6935 0.566189 47.3962 3.69664 47.3379 7.27429C47.3379 7.46873 47.3184 7.64373 47.299 7.81873C49.01 8.30482 50.7017 8.92702 52.3349 9.68533C52.4127 9.52978 52.4905 9.37422 52.5877 9.21867C54.3571 6.28266 58.1681 5.56325 61.0846 7.60485C64.0012 9.64645 64.9539 13.6908 63.1651 16.6462C63.0679 16.8018 62.9707 16.9379 62.8735 17.074C64.1762 18.3767 65.3817 19.7766 66.5095 21.2933C66.6456 21.196 66.8011 21.1183 66.9567 21.0405C69.951 19.5239 73.7231 20.9238 75.3564 24.1515C77.0091 27.3986 75.9008 31.268 72.9065 32.7846C72.7509 32.8623 72.5954 32.9207 72.4398 32.9984C73.0037 34.7873 73.412 36.5955 73.7037 38.4038C73.8787 38.4038 74.0536 38.4038 74.2286 38.4233C77.6507 38.7344 80.3534 41.8648 80.2951 45.4425C80.2173 49.0201 77.398 51.6645 73.9759 51.3534C73.8009 51.3339 73.6259 51.3145 73.4509 51.2756C73.1009 53.045 72.5954 54.7755 71.9926 56.4477C72.1482 56.5449 72.3037 56.6421 72.4593 56.7393C75.3758 58.7809 76.3286 62.8252 74.5397 65.7807C72.7704 68.7167 68.9594 69.4361 66.0428 67.3945C65.8873 67.2973 65.7511 67.1806 65.615 67.064C64.4678 68.3473 63.1846 69.5333 61.8235 70.6027C61.9207 70.7583 62.0179 70.9138 62.0957 71.0888C63.7484 74.336 62.6401 78.2053 59.6458 79.7219C56.6514 81.2385 52.8794 79.8385 51.2461 76.6109C51.1683 76.4359 51.0905 76.2803 51.0127 76.1053C49.3406 76.572 47.6295 76.9025 45.9185 77.0775C45.9379 77.2525 45.9379 77.447 45.9379 77.622C45.8601 81.1996 43.0408 83.844 39.6187 83.5329C36.1966 83.2218 33.4939 80.0913 33.5522 76.5136C33.5522 76.3192 33.5717 76.1442 33.5911 75.9692C31.8801 75.4831 30.1884 74.8609 28.5552 74.1026C28.4774 74.2582 28.3996 74.4137 28.3024 74.5693C26.533 77.5053 22.722 78.2247 19.8055 76.1831C16.8889 74.1415 15.9361 70.0972 17.725 67.1417C17.8222 66.9862 17.9194 66.8501 18.0166 66.714C16.7139 65.4113 15.5084 64.0113 14.3806 62.4947C14.2251 62.5919 14.089 62.6697 13.9334 62.7474ZM51.285 63.2335C62.1735 57.7115 66.14 43.6731 60.1513 31.9096C54.1626 20.1267 40.4937 15.0518 29.6246 20.5739C18.736 26.0959 14.7695 40.1343 20.7582 51.8978C26.7275 63.6807 40.3964 68.7556 51.285 63.2335Z" fill="url(#paint2_linear_39_3402)"/>
<defs>
<linearGradient id="paint0_linear_39_3402" x1="33.981" y1="-0.143926" x2="65.6696" y2="136.042" gradientUnits="userSpaceOnUse">
<stop stop-color="#444B8C"/>
<stop offset="0.9964" stop-color="#26264F"/>
</linearGradient>
<linearGradient id="paint1_linear_39_3402" x1="15.2883" y1="4.20551" x2="46.977" y2="140.392" gradientUnits="userSpaceOnUse">
<stop stop-color="#444B8C"/>
<stop offset="0.9964" stop-color="#26264F"/>
</linearGradient>
<linearGradient id="paint2_linear_39_3402" x1="9.06536" y1="81.6801" x2="123.71" y2="-63.505" gradientUnits="userSpaceOnUse">
<stop stop-color="#826F8C"/>
<stop offset="0.9964" stop-color="#446381"/>
</linearGradient>
</defs>
</svg>

<svg width="84" height="84" fill="none" xmlns="http://www.w3.org/2000/svg"><path d="M17.161 62.378c-2.994 1.517-6.767.117-8.4-3.11-1.652-3.248-.544-7.117 2.45-8.634.156-.078.311-.136.467-.214a38.153 38.153 0 01-1.264-5.405c-.175 0-.35 0-.525-.02-3.422-.31-6.125-3.441-6.066-7.019.077-3.577 2.897-6.222 6.319-5.91.175.019.35.038.525.077.35-1.77.855-3.5 1.458-5.172l-.467-.291c-2.916-2.042-3.869-6.086-2.08-9.042 1.77-2.936 5.58-3.655 8.497-1.614.155.098.291.214.428.33a29.721 29.721 0 013.791-3.538 3.916 3.916 0 01-.272-.486c-1.653-3.247-3.792-6.786-.778-8.264 6.98-3.402 9.975-.486 11.628 2.761.077.175.155.33.233.506a30.572 30.572 0 015.094-.972c-.02-.175-.02-.37-.02-.545.078-3.577-.99-5.502 2.45-5.56 7.486-.137 10.014 3.11 9.936 6.669 0 .194-.02.369-.038.544a34.109 34.109 0 015.035 1.867 5.63 5.63 0 01.253-.467c1.77-2.936 5.58-3.655 8.497-1.614 2.917 2.042 3.87 6.086 2.08 9.042-.097.155-.194.291-.291.427a38.051 38.051 0 013.636 4.22c.136-.098.292-.175.447-.253 2.995-1.517 6.767-.117 8.4 3.11 1.653 3.248.544 7.117-2.45 8.634-.156.078-.311.136-.467.214a38.165 38.165 0 011.264 5.405c.175 0 .35 0 .525.02 3.422.31 6.125 3.441 6.067 7.019-.078 3.577-2.897 6.222-6.32 5.91a4.746 4.746 0 01-.525-.077c-.35 1.77-.855 3.5-1.458 5.172l.467.292c2.916 2.041 3.87 6.085 2.08 9.04-1.77 2.937-7.641 4.298-10.558 2.256-.155-.097 1.77-.855 1.634-.972a29.715 29.715 0 01-3.792 3.539c.097.156.194.311.272.486 1.653 3.247.545 7.117-2.45 8.633-2.994 1.517-6.766.117-8.4-3.11-.077-.176-.155-.331-.233-.506a30.569 30.569 0 01-5.094.972c.02.175.02.37.02.544-.078 3.578-2.898 6.222-6.32 5.911-3.422-.311-6.125-3.441-6.066-7.02 0-.194.02-.368.039-.543a34.12 34.12 0 01-5.036-1.867c-.078.155-.156.311-.253.466-1.77 2.937-5.58 3.656-8.497 1.614-2.917-2.041-3.87-6.085-2.08-9.041a8.11 8.11 0 01.291-.428 38.038 38.038 0 01-3.636-4.219c-.155.078-.291.155-.447.233zm37.352.486c10.888-5.522 14.855-19.56 8.866-31.324C57.39 19.758 43.72 14.683 32.852 20.205c-10.888 5.522-14.855 19.56-8.866 31.324 5.969 11.783 19.638 16.857 30.527 11.335z" fill="url(#paint0_linear_39_3402)"/><path d="M9.89 44.995c-3.423-.31-6.126-3.441-6.067-7.019.077-3.578 2.897-6.222 6.319-5.91.175.019.35.038.525.077.35-1.77.855-3.5 1.458-5.172l-.466-.292c-2.917-2.041-6.553-7-4.473-9.741 3.909-5.211 7.972-2.955 10.889-.894.155.097.292.213.428.33a29.715 29.715 0 013.791-3.539 3.903 3.903 0 01-.272-.486c-.894-1.77-.972-3.714-.389-5.366a944.55 944.55 0 018.341 14.99c-8.671 6.359-11.452 18.9-6.008 29.575 4.59 9.06 13.728 14.135 22.652 13.494.39 1.03.798 2.06 1.206 3.091 1.147 2.78 2.47 5.484 3.791 8.206-.836.155-1.652.272-2.488.37.02.174.02.369.02.544-.079 3.577-2.237 6.61-8.44 6.28-3.422-.175-4.024-3.811-3.947-7.389 0-.194.02-.37.04-.544a34.115 34.115 0 01-5.037-1.867 5.335 5.335 0 01-.252.467c-1.77 2.936-7.914 4.18-10.85 2.139-2.917-2.042-1.517-6.63.253-9.567.097-.155.194-.291.291-.427a38.04 38.04 0 01-3.636-4.22 3.326 3.326 0 01-.447.253c-2.994 1.517-6.766.117-8.4-3.11-1.652-3.248-.544-7.117 2.45-8.634.156-.078.311-.136.467-.214a38.182 38.182 0 01-1.264-5.405c-.136 0-.31 0-.486-.02z" fill="url(#paint1_linear_39_3402)"/><path d="M13.933 62.747c-2.994 1.517-6.766.117-8.4-3.11-1.652-3.248-.544-7.117 2.45-8.634.156-.077.312-.136.467-.214a38.164 38.164 0 01-1.264-5.405c-.175 0-.35 0-.525-.02-3.422-.31-6.124-3.44-6.066-7.018.078-3.578 2.897-6.222 6.32-5.911.174.019.35.038.524.077.35-1.769.856-3.5 1.458-5.172l-.466-.291c-2.917-2.042-3.87-6.086-2.08-9.042 1.769-2.936 5.58-3.655 8.496-1.614.156.098.292.214.428.331a29.715 29.715 0 013.792-3.539 3.916 3.916 0 01-.273-.486c-1.652-3.247-.544-7.116 2.45-8.633 2.995-1.517 6.767-.117 8.4 3.111.078.175.156.33.233.506a30.572 30.572 0 015.095-.973c-.02-.175-.02-.369-.02-.544.078-3.578 2.897-6.222 6.32-5.91 3.422.31 6.124 3.44 6.066 7.018 0 .195-.02.37-.039.545a34.113 34.113 0 015.036 1.866c.078-.155.155-.31.253-.466 1.77-2.936 5.58-3.656 8.497-1.614 2.916 2.041 3.869 6.086 2.08 9.041-.097.156-.194.292-.291.428a38.041 38.041 0 013.636 4.22c.136-.098.291-.176.447-.253 2.994-1.517 6.766-.117 8.4 3.11 1.652 3.248.544 7.117-2.45 8.634-.156.077-.312.136-.467.213a38.169 38.169 0 011.264 5.406c.175 0 .35 0 .525.02 3.422.31 6.124 3.44 6.066 7.019-.078 3.577-2.897 6.221-6.32 5.91-.174-.02-.35-.038-.524-.077-.35 1.769-.856 3.5-1.458 5.172l.466.291c2.917 2.042 3.87 6.086 2.08 9.042-1.769 2.936-5.58 3.655-8.496 1.613a3.476 3.476 0 01-.428-.33 29.714 29.714 0 01-3.791 3.539c.097.155.194.31.272.486 1.652 3.247.544 7.116-2.45 8.633-2.995 1.517-6.767.117-8.4-3.111-.078-.175-.156-.33-.233-.506a30.568 30.568 0 01-5.094.972c.019.175.019.37.019.545-.078 3.578-2.897 6.222-6.32 5.91-3.421-.31-6.124-3.44-6.066-7.018 0-.195.02-.37.04-.545a34.115 34.115 0 01-5.037-1.866 5.507 5.507 0 01-.253.466c-1.769 2.936-5.58 3.656-8.497 1.614-2.916-2.042-3.869-6.086-2.08-9.041.097-.156.194-.292.292-.428a38.05 38.05 0 01-3.636-4.22 5.168 5.168 0 01-.448.253zm37.352.486c10.889-5.521 14.855-19.56 8.866-31.323-5.988-11.783-19.657-16.858-30.526-11.336-10.889 5.522-14.855 19.56-8.867 31.324 5.97 11.783 19.638 16.858 30.527 11.335z" fill="url(#paint2_linear_39_3402)"/><defs><linearGradient id="paint0_linear_39_3402" x1="33.981" y1="-.144" x2="65.67" y2="136.042" gradientUnits="userSpaceOnUse"><stop stop-color="#444B8C"/><stop offset=".996" stop-color="#26264F"/></linearGradient><linearGradient id="paint1_linear_39_3402" x1="15.288" y1="4.206" x2="46.977" y2="140.392" gradientUnits="userSpaceOnUse"><stop stop-color="#444B8C"/><stop offset=".996" stop-color="#26264F"/></linearGradient><linearGradient id="paint2_linear_39_3402" x1="9.065" y1="81.68" x2="123.71" y2="-63.505" gradientUnits="userSpaceOnUse"><stop stop-color="#826F8C"/><stop offset=".996" stop-color="#446381"/></linearGradient></defs></svg>
